svg/300/outlined/open_in_new-fill.svg

<svg xmlns="http://www.w3.org/2000/svg" width="48" height="48" viewBox="0 -960 960 960"><path d="M197.694-140.001q-23.529 0-40.611-17.082-17.082-17.082-17.082-40.611v-564.612q0-23.529 17.082-40.611 17.082-17.082 40.611-17.082h251.69v45.384h-251.69q-4.616 0-8.463 3.846-3.846 3.847-3.846 8.463v564.612q0 4.616 3.846 8.463 3.847 3.846 8.463 3.846h564.612q4.616 0 8.463-3.846 3.846-3.847 3.846-8.463v-251.69h45.384v251.69q0 23.529-17.082 40.611-17.082 17.082-40.611 17.082H197.694Zm186.614-211.692-31.999-32.615 390.307-390.307H530.155v-45.384h289.844v289.844h-45.384V-742L384.308-351.693Z"/></svg>

<svg xmlns="http://www.w3.org/2000/svg" width="48" height="48" viewBox="0 -960 960 960"><path d="M197.69-140q-23.53 0-40.61-17.08T140-197.69v-564.62q0-23.53 17.08-40.61T197.69-820h251.69v45.39H197.69q-4.61 0-8.46 3.84-3.84 3.85-3.84 8.46v564.62q0 4.61 3.84 8.46 3.85 3.84 8.46 3.84h564.62q4.61 0 8.46-3.84 3.84-3.85 3.84-8.46v-251.69H820v251.69q0 23.53-17.08 40.61T762.31-140H197.69Zm186.62-211.69-32-32.62 390.31-390.3H530.15V-820H820v289.85h-45.39V-742l-390.3 390.31Z"/></svg>
